X:1
T:Cathcart, LM
T:Cathcart, LM
T:William Henry Bell, ca. 1906
T:Public Domain Courtesy of the Cyber Hymnal™
C:William Henry Bell, ca. 1906
Z:Public Domain
Z:Courtesy of the Cyber Hymnal™
%%score ( 1 2 ) ( 3 4 )
L:1/8
M:none
K:G
V:1 treble 
V:2 treble 
V:3 bass 
V:4 bass 
V:1
 D4 [DG]2 [DA]2 | [GB]3 [GB] [FB]2 [FB]2 | [Ee]8 | [Gd]4 [GB]2 [FA]2 | [EG]3 [EG] [DG]2 [DF]2 | %5
 E8 | z2 D2 [EG]2 [FA]2 | [GB]3 [GB] [AB]2 [AB]2 | [Ge]2 [Gd]2 [Gc]2 [GB]2 [EA]2 [CE]2 | A6 [DG]2 | %10
 [DG]8 |] %11
V:2
 D4 x4 | x8 | x8 | x8 | x8 | (D4 C4) | x2 D2 x4 | x8 | x12 | (E4 D2) x2 | x8 |] %11
V:3
 [G,B,]4 [G,B,]2 [F,B,]2 | [E,B,]3 [E,B,] [D,B,]2 [D,B,]2 | (B,4 A,4) | [B,,D]4 [D,D]2 [D,C]2 | %4
 [E,B,]3 [E,B,] [B,,B,]2 [B,,A,]2 | [C,G,]8 | z2 [B,,G,]2 [E,B,]2 [D,D]2 | %7
 [G,D]3 [G,D] [F,^D]2 [F,D]2 | [E,E]2 [G,=F]2 [CE]2 [G,D]2 [A,C]2 [A,,A,]2 | (G,4 F,2) [G,,B,]2 | %10
 [G,,B,]8 |] %11
V:4
 x8 | x8 | C,8 | x8 | x8 | x8 | x8 | x8 | x12 | [D,,D,]6 x2 | x8 |] %11

